!!!COM:	Bach, Johann Sebastian
!!!CDT:	1685/02/21/-1750/07/28/
!!!OTL@@DE:	Es stehn vor Gottes Throne
!!!SCT:	BWV 309
!!!PC#:	166
!!!AGN:	chorale
**kern	**kern	**kern	**kern
*ICvox	*ICvox	*ICvox	*ICvox
*Ibass	*Itenor	*Ialto	*Isoprn
*I"Bass	*I"Tenor	*I"Alto	*I"Soprano
*>[A,A,B]	*>[A,A,B]	*>[A,A,B]	*>[A,A,B]
*>norep[A,B]	*>norep[A,B]	*>norep[A,B]	*>norep[A,B]
*>A	*>A	*>A	*>A
*clefF4	*clefGv2	*clefG2	*clefG2
*k[b-]	*k[b-]	*k[b-]	*k[b-]
*g:dor	*g:dor	*g:dor	*g:dor
*M4/4	*M4/4	*M4/4	*M4/4
*met(c)	*met(c)	*met(c)	*met(c)
*MM100	*MM100	*MM100	*MM100
4GG	4B-	4d	4g
=1	=1	=1	=1
8GGL	4d	4g	4b-
8AAJ	.	.	.
8BB-L	4B-	4d	4g
8CJ	.	.	.
4D	4A	8dL	4f#
.	.	8cJ	.
8E-L	4G	4B-	4g
8DJ	.	.	.
=2	=2	=2	=2
4C	4.G	4e-	2a
4D	.	4d	.
.	8F#	.	.
4GG;	4G;	4d;	4b-;
4G	[4d	[4g	4b-
=3	=3	=3	=3
4D	4d]	8gL]	4a
.	.	8f#J	.
8GL	4d	[4g	4b-
8FnXJ	.	.	.
8EnXL	8enXL	8gL]	4cc
8A	8cJ	8enXJ	.
8F#	8dL	8dL	4a
8DJ	8cJ	8f#J	.
=4	=4	=4	=4
4G	8B-L	4d	2b-
.	8AJ	.	.
4C#	4G	4enX	.
4D;	4d;	4f#;	4a;
4GG	4d	4g	4b-
=5	=5	=5	=5
4C	8e-L	8gL	4a
.	8AJ	8f#J	.
4C#	[4B-	4enX	4g
4D	8B-L]	2d	4g
.	16AL	.	.
.	16GJJ	.	.
4DD	4A	.	4f#
=6	=6	=6	=6
2.GG;	2.B-;	2.d;	2.g;
=:|!	=:|!	=:|!	=:|!
*>B	*>B	*>B	*>B
4GG	4d	4g	4b-
=7	=7	=7	=7
8GGL	4d	4g	4b-
8AAJ	.	.	.
8BB-L	4d	[4g	4b-
8CJ	.	.	.
4D	4d	8gL]	4a
.	.	8fJ	.
4BB-	[4d	[4f	4b-
=8	=8	=8	=8
2E-	8dL]	8fL]	2g
.	16cL	16e-L	.
.	16B-JJ	16dJJ	.
.	8AL	4c	.
.	8GJ	.	.
4D;	4A;	4d;	4f#;
[4G	8GL	4d	4b-
.	8AJ	.	.
=9	=9	=9	=9
8GL]	8B-L	8enXL	4b-
8FnX	8dJ	8fnXJ	.
8EnX	4c	4g	4b-
8CJ	.	.	.
8FL	4c	4g	4a
8E-X	.	.	.
8D	4d	[4f	4b-
8BB-J	.	.	.
=10	=10	=10	=10
8E-L	4B-	8fL]	2g
8D	.	16e-L	.
.	.	16dJJ	.
8C	4A	4e-	.
8AAJ	.	.	.
4D;	4A;	4d;	4f#;
4E	4c	4g	4g
=11	=11	=11	=11
4F	8cL	4fnX	8aL
.	8dJ	.	8bJ
8E-L	4e-	8gL	4cc
8FJ	.	8a-J	.
4G	8dL	4g	4cc
.	8cJ	.	.
4GG	4d	4g	4bnX
=12	=12	=12	=12
4C;	4e-;	4g;	4cc;
4C#	4e	4g	4a
8DL	[4d	8f#L	4b-X
8EnXJ	.	8gJ	.
4F#	8dL]	4a	4a
.	8cJ	.	.
=13	=13	=13	=13
8GL	4B-	8dL	4g
8CJ	.	8e-J	.
4D	8AL	4d	4f#
.	8cJ	.	.
4GG;	4B;	4d;	4g;
==	==	==	==
*-	*-	*-	*-
!!!hum2abc: -Q ''
!!!title: @{PC#}. @{OTL@@DE}
!!!YOR1: 371 vierstimmige Choralges&auml;nge von Johann Sebastian Bach, 
!!!YOR2: 4th ed. by Alfred D&ouml;rffel (Leipzig: Breitkopf und H&auml;rtel, 
!!!YOR2: c.1875). 178 pp. Plate "V.A.10".  reprint: J.S. Bach, 371 Four-Part 
!!!YOR4: Chorales (New York: Associated Music Publishers, Inc., c.1940).
!!!SMS: B&H, 4th ed, Alfred D&ouml;rffel, c.1875, plate V.A.10
!!!EED:  Craig Stuart Sapp
!!!EEV:  2009/05/22
